X:308
T:Haphazard
C:John Playford, 1686
M:4/4
L:1/8
S:Colin Hume's website,  colinhume.com  - chords can also be printed below the stave.
Q:1/2=100
K:G
D2 [| "G"G2B2 "C"cBAG | "D7"F2A4d2 | "Em"GAB2 "C/G"B2cd | "C"e4 "D7"dcBA |\
"G"G2B2 "C"cBAG | "D7"F2A4Bc | "G"d2B2 "D7"e2d2 | "G"g4 G2g2 |
"D7"f2a4gf | "G"gfga b2a2 | "Em"g2fg "A7"agfe | "D"d2ef "Em"gfed |\
"Am"efga "G"BcdB | "C"cde2 "D"A2a2 | "D"fga2 "D7"d2f2 | "G"g2fe dcBA |]

